Mila/Hook.svg

<?xml version="1.0" encoding="UTF-8" standalone="no"?>
<!-- Created with Inkscape (http://www.inkscape.org/) -->

<svg
   width="400mm"
   height="400mm"
   viewBox="0 0 400 400"
   version="1.1"
   id="svg1"
   sodipodi:docname="Hook.svg"
   inkscape:version="1.4.2 (f4327f4, 2025-05-13)"
   xmlns:inkscape="http://www.inkscape.org/namespaces/inkscape"
   xmlns:sodipodi="http://sodipodi.sourceforge.net/DTD/sodipodi-0.dtd"
   xmlns="http://www.w3.org/2000/svg"
   xmlns:svg="http://www.w3.org/2000/svg">
  <sodipodi:namedview
     id="namedview1"
     pagecolor="#ffffff"
     bordercolor="#000000"
     borderopacity="0.25"
     inkscape:showpageshadow="2"
     inkscape:pageopacity="0.0"
     inkscape:pagecheckerboard="0"
     inkscape:deskcolor="#d1d1d1"
     inkscape:document-units="mm"
     inkscape:zoom="5.6568543"
     inkscape:cx="756.07392"
     inkscape:cy="787.09823"
     inkscape:window-width="2560"
     inkscape:window-height="1494"
     inkscape:window-x="-11"
     inkscape:window-y="-11"
     inkscape:window-maximized="1"
     inkscape:current-layer="layer1" />
  <defs
     id="defs1" />
  <g
     inkscape:label="Layer 1"
     inkscape:groupmode="layer"
     id="layer1">
    <path
       style="fill:none;stroke:#ff0000;stroke-width:0.2;stroke-dasharray:none;stroke-opacity:1"
       d="m 204.90249,225.6486 c -0.24314,1.54899 -1.11217,2.89665 -2.41356,3.648 -1.54701,0.89316 -3.45268,0.89316 -4.99969,0 -1.54701,-0.89316 -2.50011,-2.54416 -2.50011,-4.33049 0,-3.59325 1.1785,-6.29879 5.26583,-11.19776 4.66607,-5.59261 4.74493,-9.41112 4.74493,-13.76815 0,-2.76142 -2.23827,-5.00022 -4.99969,-5.00022 -2.76142,0 -4.73521,2.25155 -5.00022,5.00022 -0.11838,1.22779 0.47725,2.89888 1.53531,4.00078 0.87316,-0.53583 2.11708,-1.55901 2.76986,-2.82049 -0.48949,-0.33562 -0.71417,-0.9434 -0.56069,-1.51671 0.20004,-0.74691 0.96772,-1.19021 1.71462,-0.99012 0.61209,0.164 1.03769,0.71869 1.03766,1.35237 0,4.35703 -1.08289,7.8411 -5.2498,11.82409 -4.61208,4.40851 -6.25802,8.86128 -6.25802,13.11599 0,3.57266 1.9062,6.87413 5.00021,8.66046 3.09401,1.78633 6.9059,1.78633 9.99991,0 2.79041,-1.61104 4.61468,-4.45447 4.94583,-7.61775 0.0183,-0.17446 0.0161,-0.10212 0.0252,-0.27837"
       id="path9"
       sodipodi:nodetypes="cssssssscccscsssssc" />
    <path
       style="fill:none;stroke:#ff0000;stroke-width:0.176973;stroke-dasharray:none;stroke-opacity:1"
       d="m 204.90249,225.6486 c 0.57474,-3.3343 1.7254,-4.42754 3.39488,-5.19353 1.49172,-0.68444 3.15566,-0.50291 4.12262,-0.12944 2.11388,0.81644 3.05475,2.30489 2.85126,4.21098 -0.13582,1.27224 -0.58046,2.94016 -3.11125,2.82243 1.51852,-3.03422 -1.75887,-4.19245 -2.19993,-1.62859"
       id="path7"
       sodipodi:nodetypes="cssscc" />
  </g>
</svg>

<?xml version="1.0" encoding="UTF-8" standalone="no"?>
<!-- Created with Inkscape (http://www.inkscape.org/) -->

<svg
   width="400mm"
   height="400mm"
   viewBox="0 0 400 400"
   version="1.1"
   id="svg1"
   sodipodi:docname="Hook.svg"
   inkscape:version="1.4.2 (f4327f4, 2025-05-13)"
   xmlns:inkscape="http://www.inkscape.org/namespaces/inkscape"
   xmlns:sodipodi="http://sodipodi.sourceforge.net/DTD/sodipodi-0.dtd"
   xmlns="http://www.w3.org/2000/svg"
   xmlns:svg="http://www.w3.org/2000/svg">
  <sodipodi:namedview
     id="namedview1"
     pagecolor="#ffffff"
     bordercolor="#000000"
     borderopacity="0.25"
     inkscape:showpageshadow="2"
     inkscape:pageopacity="0.0"
     inkscape:pagecheckerboard="0"
     inkscape:deskcolor="#d1d1d1"
     inkscape:document-units="mm"
     inkscape:zoom="5.6568543"
     inkscape:cx="755.54359"
     inkscape:cy="784.62336"
     inkscape:window-width="2560"
     inkscape:window-height="1494"
     inkscape:window-x="-11"
     inkscape:window-y="-11"
     inkscape:window-maximized="1"
     inkscape:current-layer="layer1" />
  <defs
     id="defs1" />
  <g
     inkscape:label="Layer 1"
     inkscape:groupmode="layer"
     id="layer1">
    <path
       id="path7"
       style="fill:none;stroke:#ff0000;stroke-width:0.2;stroke-dasharray:none;stroke-opacity:1"
       d="M 200.0002 194.99998 C 197.23878 194.99998 195.26499 197.25153 194.99998 200.0002 C 194.8816 201.22799 195.36044 202.8288 196.4185 203.9307 C 197.34517 203.36203 198.44462 202.23679 198.97597 200.86526 A 1.4 1.4 0 0 1 198.74446 199.66378 A 1.4 1.4 0 0 1 200.45908 198.67366 A 1.4 1.4 0 0 1 201.49674 200.02603 C 201.49674 204.38306 200.41385 207.86713 196.24694 211.85012 C 191.63486 216.25863 189.98892 220.7114 189.98892 224.96611 C 189.98892 228.53877 191.89512 231.84024 194.98913 233.62657 C 198.08314 235.4129 201.89503 235.4129 204.98904 233.62657 C 208.08305 231.84024 209.98925 228.53877 209.98925 224.96611 C 209.98925 223.16766 209.92532 221.73511 208.92627 220.31265 C 208.21314 219.29724 206.99402 218.45747 205.82258 218.45747 C 203.99332 218.45747 202.51012 219.89048 202.51012 221.6583 C 202.51012 223.14199 203.55482 224.38987 204.97198 224.75269 C 204.97198 226.66764 204.03594 228.40344 202.48893 229.2966 C 200.94192 230.18976 199.03625 230.18976 197.48924 229.2966 C 195.94223 228.40344 194.98913 226.75244 194.98913 224.96611 C 194.98913 221.37286 196.16763 218.66732 200.25496 213.76835 C 204.92103 208.17574 204.99989 204.35723 204.99989 200.0002 C 204.99989 197.23878 202.76162 194.99998 200.0002 194.99998 z " />
  </g>
</svg>
